X:1
T:Easter, Joyous Easter
T:Easter, Joyous Easter
T:Carl Harold Lowden
T:Flora Kirkland, 1905
T:Public Domain Courtesy of the Cyber Hymnal™
T:Public Domain Courtesy of the Cyber Hymnal™
C:Carl Harold Lowden
Z:Public Domain
Z:Courtesy of the Cyber Hymnal™
%%score ( 1 2 ) ( 3 4 )
L:1/8
Q:1/4=100
M:4/4
K:Ab
V:1 treble 
V:2 treble 
V:3 bass 
V:4 bass 
V:1
 [CE][CE][DF][=B,=D] [CE]2 [Ec]2 | [Fd][Fd][FA][_FB] [Ec]4 | [Ec][DB][DB][C=A] [DB][Fd][Ec][DB] | %3
w: 1.~East- er, joy- ous East- er,|ho- ly hap- py time!|Bells ring out their mess- age, joy in|
w: 2.~Voic- es in a gar- den,|near a rock- hewn tomb,|Gra- cious heav’n- ly voic- es, cheer- ing|
w: 3.~O- ther voic- es e- cho,|through the East- er chime|One a- bove all o- thers, speaks with|
 [CA]2 [DF]2 [CE]4 | [CE][CE][DF][=B,=D] [CE]2 [Ec]2 | [Fd][Fd][FA][_FB] [Ec]4 | %6
w: ev- ery chime;|Sweet- ly through their mu- sic,|faint an e- cho swells,|
w: earth’s dark gloom;|Voic- es from the glo- ry,|sent from thence to tell,|
w: pow’r sub- lime;|Ten- der words of com- fort,|peace and love pro- found,|
 [EB][EB][EB][EG] [=DB][DB][Fc][F=d] | !fermata!e6 !fermata!z2 || %8
w: Voic- es seem to min- gle with the|bells.|
w: Je- sus lives a- gain! Im- man- u-|el!|
w: O’er the world to- day His words re-|sound.|
"^Refrain" [Ae][Ae] [Ae]>[Ad] [Ac]2 [EA]2 | [=Ec][Ec] [Ec]>[EB] [FA]4 | %10
w: (Glad East- er bells.) * *||
w: (Im- man- u- el!) Seek ye|not the liv- ing here|
w: (His words re- sound.) * *||
 [FA][FA][EG][DF] [DF][CE][EA][Ec] | [=Dc]2 [DB]2 z2 x4 | [Ae][Ae] [Ae]>[Ad] [Ac]2 [EA]2 | %13
w: |||
w: a- mong the dead; Christ the Lord is|ris- en,|ris- en as He said; Bless-|
w: |||
 [=Ec][Ec] [Ec]>[EB] [FA]4 | [FB][FB][Fc][Fc] [Fe][Fd][Fc][FB] | [EA]2 [DG]2 [CA]4 |] %16
w: |||
w: èd re- as- sur- ance,|gone the wear- y night, Christ is ris-|en! East- er|
w: |||
V:2
 x8 | x8 | x8 | x8 | x8 | x8 | x8 | EFGA B2 x2 || x8 | x8 | x8 | x4 [EB]4 (A/B/c/=d/) | x8 | x8 | %14
 x8 | x8 |] %16
V:3
 [A,,A,][A,,A,][A,,A,][A,,A,] [A,,A,]2 [A,,A,]2 | [D,A,][D,A,][D,D][D,A,] [A,,A,]4 | %2
 [E,A,][E,G,][E,G,][E,^F,] [E,G,][E,G,][E,G,][E,G,] | (A,E,) (F,G,) [A,,A,]4 | %4
 [A,,A,][A,,A,][A,,A,][A,,A,] [A,,A,]2 [A,,A,]2 | [D,A,][D,A,][D,D][D,A,] [A,,A,]4 | %6
 [B,,G,][B,,G,][B,,G,][B,,B,] [B,,F,][B,,F,][B,,A,][B,,A,] | !fermata!G,A,B,C D2 z2 || %8
 [A,C][A,C] [A,C]>[A,F] [A,E]2 [A,C]2 | [C,C][C,G,] [C,G,]>[C,C] [F,C]4 | %10
 [D,D][D,D][D,A,][D,A,] [A,,A,][A,,A,][C,A,][A,,A,] | [F,A,]2 [B,,A,]2 [E,G,]4 x2 | %12
 [A,C][A,C] [A,C]>[A,F] [A,E]2 [A,C]2 | [C,C][C,G,] [C,G,]>[C,C] [F,C]4 | %14
 [D,D][D,D][C,=A,][C,A,] [B,,B,][B,,B,][C,A,][D,B,] | [E,C]2 [E,B,]2 [A,,E,A,]4 |] %16
V:4
 x8 | x8 | x8 | A,,2 A,,2 x4 | x8 | x8 | x8 | E,6 x2 || x8 | x8 | x8 | x10 | x8 | x8 | x8 | x8 |] %16

